blockchains/ethereum/assets/0x6B3595068778DD592e39A122f4f5a5cF09C90fE2/logo.svg

<svg fill="none" height="250" viewBox="0 0 250 250" width="250" xmlns="http://www.w3.org/2000/svg" xmlns:xlink="http://www.w3.org/1999/xlink"><linearGradient id="a" gradientUnits="userSpaceOnUse" x1="147.692" x2="86.3795" y1="186.28" y2="22.4596"><stop offset=".244" stop-color="#fc51a1"/><stop offset="1" stop-color="#1ab0ed"/></linearGradient><path d="m180 48.4999c-51.35-36.9-106.7999-47.550009-123.8499-23.85-9.75 13.6-38.5 53.55-48.25 67.15-17 23.7001 10.8 72.8501 62.15 109.7501 51.3499 36.9 106.7999 47.6 123.8499 23.9 9.75-13.6 38.5-53.55 48.25-67.15 17.05-23.75-10.8-72.9001-62.15-109.8001z" fill="#fff"/><path d="m238.65 123.801c-25.9-8.05-30.55 11.45-39.85 23.1-9.65 12.15-13.4 19.65-25.55 30.85s-27.4 4.7-33.95 0-9.5-10.3-23.55-27.4c-14-17.15-29.3-3.1-36.45 3.1-7.15 6.25-17.3 16.2-24.45 20.25-2.95 1.65-5.95 2.35-8.4 2.55-32.1-31.1-47.69999-65.5-34.65-83.7003 9.3-12.95 36.7-51.05 46-64 16.25-22.59999 70.65-11.65 119.65 23.55 30.75 22.05 52.95 49.0503 61.2 71.7003z" fill="url(#a)"/><path d="m237.5 157.503c-9.3 12.95-36.7 51.1-46 64.05-16.25 22.6-69.9 11.65-118.85-23.55-9.55-6.9-18.35-14.25-26.15-21.8 2.45-.2 5.4-.85 8.4-2.55 7.15-4.05 17.3-14 24.45-20.25s22.45-20.25 36.45-3.1 17 22.75 23.55 27.4c6.55 4.7 21.8 11.2 33.95 0s15.9-18.7 25.55-30.85c9.25-11.65 13.95-31.15 39.85-23.1 4.85 13.45 4.85 25.35-1.2 33.75z" fill="#000"/><g stroke="#fff" stroke-linecap="round" stroke-miterlimit="10" stroke-width="6.2261"><path d="m185.8 167.548c-2.4-.55-4.9-1.15-7.4-1.9"/><path d="m215.6 168.852c-6.9 1.4-15.15 1.3-24.35-.25"/><path d="m53.7 54.6984c-.25-1.55-.4-3.05-.5-4.55"/><path d="m89.4999 111.747c-18-17.7001-30.3-36.1501-34.6-51.7001"/></g><path d="m173.05 58.0477c-46.45-33.1-95.25-44.25-109-24.95s12.7 61.8 59.15 94.9003c46.45 33.1 95.25 44.25 109 24.95 13.8-19.3-12.7-61.8003-59.15-94.9003zm16.85 64.7503c-6.5 9.1-30.45 3.15-53.55-13.35-23.1-16.4503-36.55-37.1503-30.05-46.2503s30.45-3.15 53.55 13.35c23.1 16.45 36.55 37.2003 30.05 46.2503z" fill="#fff"/></svg>

<svg width="250" height="250" viewBox="0 0 250 250" fill="none" xmlns="http://www.w3.org/2000/svg">
<path d="M180 48.4999C128.65 11.5999 73.2001 0.949891 56.1501 24.6499C46.4001 38.2499 17.6501 78.1999 7.9001 91.7999C-9.0999 115.5 18.7001 164.65 70.0501 201.55C121.4 238.45 176.85 249.15 193.9 225.45C203.65 211.85 232.4 171.9 242.15 158.3C259.2 134.55 231.35 85.3999 180 48.4999Z" fill="white"/>
<path d="M238.65 123.801C212.75 115.751 208.1 135.251 198.8 146.901C189.15 159.051 185.4 166.551 173.25 177.751C161.1 188.951 145.85 182.451 139.3 177.751C132.75 173.051 129.8 167.451 115.75 150.351C101.75 133.201 86.45 147.251 79.3 153.451C72.15 159.701 62 169.651 54.85 173.701C51.9 175.351 48.9 176.051 46.45 176.251C14.35 145.151 -1.24999 110.751 11.8 92.5507C21.1 79.6007 48.5 41.5007 57.8 28.5507C74.05 5.95071 128.45 16.9007 177.45 52.1007C208.2 74.1507 230.4 101.151 238.65 123.801Z" fill="url(#paint0_linear_37_33706)"/>
<path d="M237.5 157.503C228.2 170.453 200.8 208.603 191.5 221.553C175.25 244.153 121.6 233.203 72.65 198.003C63.1 191.103 54.3 183.753 46.5 176.203C48.95 176.003 51.9 175.353 54.9 173.653C62.05 169.603 72.2 159.653 79.35 153.403C86.5 147.153 101.8 133.153 115.8 150.303C129.8 167.453 132.8 173.053 139.35 177.703C145.9 182.403 161.15 188.903 173.3 177.703C185.45 166.503 189.2 159.003 198.85 146.853C208.1 135.203 212.8 115.703 238.7 123.753C243.55 137.203 243.55 149.103 237.5 157.503Z" fill="black"/>
<path d="M185.8 167.548C183.4 166.998 180.9 166.398 178.4 165.648" stroke="white" stroke-width="6.2261" stroke-miterlimit="10" stroke-linecap="round"/>
<path d="M215.6 168.852C208.7 170.252 200.45 170.152 191.25 168.602" stroke="white" stroke-width="6.2261" stroke-miterlimit="10" stroke-linecap="round"/>
<path d="M53.7 54.6984C53.45 53.1484 53.3 51.6484 53.2 50.1484" stroke="white" stroke-width="6.2261" stroke-miterlimit="10" stroke-linecap="round"/>
<path d="M89.4999 111.747C71.4999 94.0469 59.1999 75.5969 54.8999 60.0469" stroke="white" stroke-width="6.2261" stroke-miterlimit="10" stroke-linecap="round"/>
<path d="M173.05 58.0477C126.6 24.9477 77.8 13.7977 64.05 33.0977C50.3 52.3977 76.75 94.8977 123.2 127.998C169.65 161.098 218.45 172.248 232.2 152.948C246 133.648 219.5 91.1477 173.05 58.0477ZM189.9 122.798C183.4 131.898 159.45 125.948 136.35 109.448C113.25 92.9977 99.8 72.2977 106.3 63.1977C112.8 54.0977 136.75 60.0477 159.85 76.5477C182.95 92.9977 196.4 113.748 189.9 122.798Z" fill="white"/>
<defs>
<linearGradient id="paint0_linear_37_33706" x1="147.692" y1="186.28" x2="86.3795" y2="22.4596" gradientUnits="userSpaceOnUse">
<stop offset="0.244" stop-color="#FC51A1"/>
<stop offset="1" stop-color="#1AB0ED"/>
</linearGradient>
</defs>
</svg>
